**kern	**kern	**dynam
*part1	*part1	*part1
*staff2	*staff1	*
*I"Piano	*	*
*clefF4	*clefG2	*
*k[b-]	*k[b-]	*
=1	=1	=1
*^	*	*
2G 2B-	(16E-XLL	2d-X	.
.	16D	.	.
.	16E-	.	.
.	16DJ	.	.
.	8E-J)	.	.
.	8r	.	.
2G 2B-	(16EE-XLL	2d-	.
.	16DD	.	.
.	16EE-	.	.
.	16DDJ	.	.
.	8EE-J)	.	.
.	8r	.	.
=	=	=	=
4G 4B-	(16EEnLL	4c	.
.	16EE-X	.	.
.	16DD	.	.
.	16DD-XJ	.	.
(16ELL	8CCJ)	2.rffyy	.
16G	.	.	.
16B-	8rBB	.	.
16cJJ	.	.	.
16eLL>	2ryy	.	.
16g>	.	.	.
16b->	.	.	.
16ccJJ>	.	.	.
16eeLL>	.	.	.
16gg>	.	.	.
16bb->	.	.	.
16cccJJ>)	.	.	.
=	=	=	=
12r	2FF	2f: 2a: 2cc: 2ff:	p
(12AAL	.	.	.
12CJ	.	.	.
4F)	.	.	.
*	*	*^	*
12r	2FF	(4gg	2b- 2cc	.
(12BB-L	.	.	.	.
12CJ	.	.	.	.
4G)	.	8ffL	.	.
.	.	8eeJ)	.	.
*	*	*v	*v	*
=	=	=	=
12r	2FF	2cc: 2ff: 2aa: 2ccc:	.
(12AAL	.	.	.
12CJ	.	.	.
4F)	.	.	.
12r	2FF	2cc: 2ee: 2gg: 2ccc:	.
(12BB-L	.	.	.
12CJ	.	.	.
4G)	.	.	.
=	=	=	=
12r	2FF	2cc: 2ff: 2aa: 2ccc:	.
(12AAL	.	.	.
12CJ	.	.	.
4F)	.	.	.
12r	2FF	2cc: 2ee: 2gg: 2ccc:	.
(12BB-L	.	.	.
12CJ	.	.	.
4G)	.	.	.
=	=	=	=
12r	2FF	2cc: 2ff: 2aa: 2ccc:	.
(12AAL	.	.	.
12CJ	.	.	.
4F)	.	.	.
12r	2FF	2A: 2c: 2f: 2a:	.
(12AAL	.	.	.
12CJ	.	.	.
4E-X)	.	.	.
=	=	=	=
!	!	!LO:TX:b:i:t=cresc.	!
12r	2FF	2B-: 2d-X: 2f: 2b-:	.
(12BB-L	.	.	.
12D-XJ	.	.	.
4F)	.	.	.
12r	2FF	2c: 2e-X: 2f: 2cc:	.
(12CL	.	.	.
12FJ	.	.	.
4A)	.	.	.
*v	*v	*	*
=	=	=
*-	*-	*-
!!!system-decoration: {(s1,s2)}
!!!RDF**kern: > = above
